!!!OTL: Sable Island Song (a)
!!!ONM: 142.
**kern
*clefG2
!Modal -- Conklin/Pearce 
*k[]
*a:
*M4/4
*MM120
{8d
8d
=1
4d
4a
4a
4e
=2
4f
4d
4r}
{4d
=3
4d
4a
4a
4e
=4
4f
4r
4r}
{8d
8d
=5
4d
4f
4f
4e
=6
4f
4d
4r}
{4d
=7
4e
4c
4A
4G
=8
2A
4r}
==
*-
!!!CNT: Folksongs of Maritime Canada
!!!MRD: 1928///-1932///
!!!OCL: Helen Creighton
!!!YOR: Songs and Ballads from Nova Scotia
!!!PPR: J.M. Dent & Sons, Limited
!!!PPP: Toronto, Canada
!!!PDT: 1932///
!!!reprint: Dover Publications, 1992: ISBN 0-486-21703-5
!!!ENC1: Craig Stuart Sapp (music and bibliographic data)                       
!!!ENC2: Marcus Pearce (phrase markings and key designations)                   
!!!ENC3: Darrell Conklin (phrase markings and key designations)   
!!!END: 2002/04/10/
!!!EEV: 2004/06/05
!!!MPN: Mr. Albert Whare
!!!PPG: 310
!!!EFL: 144/152
!!!ARE: Canada; Nova Scotia
!!!verses: 9
!!!VTS: 4084719444
